X:1
T:Title
%%score { 1 | ( 2 3 ) }
L:1/8
M:6/8
K:Bb
V:1 treble nm="Grand Piano"
V:2 bass 
V:3 bass 
V:1
 z3 z2[Q:1/4=90] [DF] | [DF]>[EG][DF] [F,B,D][B,DF][DFB] | B2 A A2 E | E>DE F2 E | D3- D2 [DF] | %5
 [DF]>[EG][DF] [F,B,D][B,DF][DFB] | [DFB]2 [CFA] [CFA]2 [B,FB] | [Gc][Gc][GB] [Fd]2 [Ec] | %8
[M:5/8] [DB]-[DB]- [DB]3 |[M:1/8] [Fd] |[M:3/4] [^Fd]>[FA] [FA][FA] [GB][Ac] | B2 B B2 f | %12
 [Af]>c cc de | [Fd]4- [Fd][DF] | [DF]>[EG] [DF][F,B,D] [B,DF][DFB] | B2 A A2 e | e>d c G2 A | %17
[M:5/8] [DB]-[DB]- [DB]3 |] %18
V:2
 z3 z2 [B,,B,] | [B,,B,]>[B,,B,][B,,B,] B,,B,,B,, | [F,DF]2 [F,CE] [F,CE]2 [F,A,C] | %3
 [F,A,C]>[F,A,=B,][F,A,C] [F,A,C]2 [F,C] | [B,,F,B,]3- [B,,F,B,]2 [B,,B,] | %5
 [B,,B,]>[B,,B,][B,,B,] B,,B,,B,, | F,2 F, F,2 D, | [E,B,][E,B,][=E,B,] [F,B,]2 [F,A,] | %8
[M:5/8] [B,,B,]-[B,,B,]- [B,,B,]3 |[M:1/8] [B,,B,] |[M:3/4] [D,A,]>[D,D] [D,D][D,D] [D,D][^F,D] | %11
 [G,DG]2 [G,DG] [G,DG]2 [B,DF] | [F,C]>[F,A,F] [F,A,F][F,F]- [F,B,F][F,CF] | %13
 [B,,B,]4- [B,,B,][B,,B,] | [B,,B,]>[B,,B,] [B,,B,]B,, B,,B,, | [F,DF]2 [F,CF] [F,CF]2 [F,A,F] | %16
 [F,A,G]>[F,A,F] [F,A,E] [F,CE]2 [F,E] |[M:5/8] [B,,F,]-[B,,F,]- [B,,F,]3 |] %18
V:3
 x6 | x6 | x6 | x6 | x6 | x6 | x6 | x6 |[M:5/8] x5 |[M:1/8] x |[M:3/4] x6 | x6 | z2 z A, z2 | x6 | %14
 x6 | x6 | x6 |[M:5/8] x5 |] %18

